assets/icons/users.svg

<svg  viewBox="0 0 24 24" fill="black" xmlns="http://www.w3.org/2000/svg">
	<path d="M18 21v-2c0-1.38-0.561-2.632-1.464-3.536s-2.156-1.464-3.536-1.464h-8c-1.38 0-2.632 0.561-3.536 1.464s-1.464 2.156-1.464 3.536v2c0 0.552 0.448 1 1 1s1-0.448 1-1v-2c0-0.829 0.335-1.577 0.879-2.121s1.292-0.879 2.121-0.879h8c0.829 0 1.577 0.335 2.121 0.879s0.879 1.292 0.879 2.121v2c0 0.552 0.448 1 1 1s1-0.448 1-1zM14 7c0-1.38-0.561-2.632-1.464-3.536s-2.156-1.464-3.536-1.464-2.632 0.561-3.536 1.464-1.464 2.156-1.464 3.536 0.561 2.632 1.464 3.536 2.156 1.464 3.536 1.464 2.632-0.561 3.536-1.464 1.464-2.156 1.464-3.536zM12 7c0 0.829-0.335 1.577-0.879 2.121s-1.292 0.879-2.121 0.879-1.577-0.335-2.121-0.879-0.879-1.292-0.879-2.121 0.335-1.577 0.879-2.121 1.292-0.879 2.121-0.879 1.577 0.335 2.121 0.879 0.879 1.292 0.879 2.121zM24 21v-2c-0.001-1.245-0.457-2.385-1.215-3.261-0.652-0.753-1.528-1.311-2.529-1.576-0.534-0.141-1.081 0.177-1.222 0.711s0.177 1.081 0.711 1.222c0.607 0.161 1.136 0.498 1.528 0.952 0.454 0.526 0.726 1.206 0.727 1.952v2c0 0.552 0.448 1 1 1s1-0.448 1-1zM15.752 4.099c0.803 0.206 1.445 0.715 1.837 1.377s0.531 1.47 0.325 2.273c-0.176 0.688-0.575 1.256-1.105 1.652-0.314 0.235-0.675 0.409-1.063 0.511-0.534 0.14-0.854 0.687-0.713 1.221s0.687 0.854 1.221 0.713c0.637-0.167 1.232-0.455 1.752-0.844 0.884-0.66 1.552-1.613 1.845-2.758 0.342-1.337 0.11-2.689-0.542-3.788s-1.725-1.953-3.062-2.296c-0.535-0.137-1.080 0.186-1.217 0.721s0.186 1.080 0.721 1.217z"></path>
</svg>

<svg viewBox="0 0 24 24" xmlns="http://www.w3.org/2000/svg">
	<path
		d="M18 21v-2c0-1.38-.561-2.632-1.464-3.536S14.38 14 13 14H5c-1.38 0-2.632.561-3.536 1.464S0 17.62 0 19v2a1 1 0 002 0v-2c0-.829.335-1.577.879-2.121S4.171 16 5 16h8c.829 0 1.577.335 2.121.879S16 18.171 16 19v2a1 1 0 002 0zM14 7c0-1.38-.561-2.632-1.464-3.536S10.38 2 9 2s-2.632.561-3.536 1.464S4 5.62 4 7s.561 2.632 1.464 3.536S7.62 12 9 12s2.632-.561 3.536-1.464S14 8.38 14 7zm-2 0c0 .829-.335 1.577-.879 2.121S9.829 10 9 10s-1.577-.335-2.121-.879S6 7.829 6 7s.335-1.577.879-2.121S8.171 4 9 4s1.577.335 2.121.879S12 6.171 12 7zm12 14v-2a4.972 4.972 0 00-1.215-3.261 5.055 5.055 0 00-2.529-1.576 1 1 0 10-.511 1.933 3.049 3.049 0 011.528.952c.454.526.726 1.206.727 1.952v2a1 1 0 002 0zM15.752 4.099c.803.206 1.445.715 1.837 1.377s.531 1.47.325 2.273a2.969 2.969 0 01-1.105 1.652 3.08 3.08 0 01-1.063.511 1 1 0 10.508 1.934 5.074 5.074 0 001.752-.844 4.965 4.965 0 001.845-2.758c.342-1.337.11-2.689-.542-3.788s-1.725-1.953-3.062-2.296a1 1 0 00-.496 1.938z" />
</svg>
